X:1
T:Title
%%score { ( 1 3 4 ) | ( 2 5 6 ) }
L:1/8
M:4/4
K:Bb
V:1 treble nm="Grand Piano"
V:3 treble 
V:4 treble 
V:2 bass 
V:5 bass 
V:6 bass 
V:1
 z4 z2[Q:1/4=100] F2 | [DB]2 [DB]2 z2 z c | BAGA [DB]2 F2 | G2 [FA]2 [FB]2 [Fd]2 | cdcB A2 F2 | %5
 [DB]2 [DB]2 [DB]2 dc | BAGA [DB]2 d2 | cFGB [FA]2 [=EG]2 | [A,F]6 z2 | e4 z4 | B4 z4 | e4 z4 | %12
 B4 z4 | [EG][DF][EG][^FA] B2 c2 | d6 c2 | dc[FB]c d2 [B=e]2 | [Af]6 [Af]2 | %17
 [Bf]2 [Fd]2 [FB]3 [FA] | [EG]A .[B,GB]2 [Fd]2 F2 | G[Ge][Gd][CGc] [DFB]2 [CEA]2 | %20
[M:7/8] [B,DB]-[B,DB]-[B,DB]- [B,DB]3 z |[M:3/4][Q:1/4=80] BG B [Ge]3 | [Bd][_Ac] [EG] [GB]3 | %23
 z2 z [F_A]3 | z2 z .G3 | BG B [Ge]3 | [Bd][_Ac] [EG] [GB]3- | [GB] [^Fc]2 [=Fd] F=E | %28
 F[Fd] [Ec] .[DB]3 | z d e [_Af]3 | [_Ac][Bd] [Ac] [^F=A]2 [GB] | z d e [_Af]3 | %32
 [_Ac][Bd] [Ac] .[GB]3 | BG B [Ge]3 | [Gd][Gf] .[Ge]2 z C | z2 z [GB]3 | z2 z .G3 | BG B [Ge]3 | %38
 [Gd][Gf] [Ge] c3- | c e2 e G_A | _A[DG] [DF] E3- |[M:1/4] E2- | %42
[M:4/4] E[Q:1/4=100] F2 [DB]- [DB] .[DB]3 | z2 cB AGA[DB]- | [DB] F2 G- G [FA]2 [FB]- | %45
 [FB] [Fd]2 c dcBA- | A F2 [DB]- [DB] [DB]2 [DB]- | [DB]dcB AGA[DB]- | [DB] d2 c FGB[FA]- | %49
 [FA] [=EG]2 [A,F]- [A,F]4- | [A,F] z z2 z2 cA | z2 z B- B3 z | z2 z e- e2 z2 | z2 z B- B3 z | z8 | %55
 z8 | z8 | z8 | z8 | z4 z B z2 | z8 |[M:15/8] z15 |] %62
V:2
 z4 z2 F,2 | [B,,F,]2 [F,,F,]2 [B,,F,]2 z D | [C,F,]2 [F,,F,]2 [B,,F,]2 [D,B,]2 | %3
 [E,B,E]2 [E,C]2 [D,B,]2 [B,,B,]2 | [C,A,]2 G,C [F,CF]2 F,2 | [B,,F,]2 [F,,F,]2 [B,,F,]2 [F,,F,]2 | %6
 [C,F,]2 [F,,F,]2 [B,,F,]2[K:treble] [B,F]2 | [A,CF][A,C][B,DF][B,DG] z2[K:bass] z B, | F,6 F2 | %9
 F,,2 [F,A,]2 [F,A,E]2 [F,A,E]2 | B,,2 [F,B,]2 [F,B,D]2 [F,B,D]2 | F,,2 [F,A,]2 [F,A,E]2 [F,A,E]2 | %12
 B,,2 [F,B,]2 [F,B,D]2 [B,,B,]2 | [E,B,][B,,B,][E,B,][D,D][K:treble] [G,DG]2 [A,CF]2 | %14
 [B,F]6 [F,A,E]2 | [B,F][K:bass][F,A,F][D,B,][K:treble][F,A,F] [B,F]2[K:bass] [G,C]2 | %16
 [F,C]6 [E,C]2 | [D,B,]2 [D,B,]2 [D,B,]3 [D,B,] | z[K:treble] F z c[K:bass] [B,,B,]2 [D,B,]2 | %19
 [E,B,E][C,C][D,=B,]E, F,2 F,2 |[M:7/8] B,,-B,,-B,,- B,,3 z |[M:3/4][K:treble] GE .G2[K:bass] B,E | %22
 B,E .B,2 B,E | B,E .B,2 z2 | [B,B][K:treble][B,_A] [B,F][K:bass] .[E,E]3 | %25
 [B,G][B,E] .[B,G]2[K:bass] B,E | B,E .B,2 B,E | B,E .B,2 D_D | DF,, F,B,, F,B, | %29
 B_A A[K:bass]B,, B,D | B,D .B,2[K:treble] CB, | B_A A[K:bass]B,, B,D | B,D .B,2[K:treble] CB, | %33
 GE .G2[K:bass] B,E | B,E B,_A,, E,[K:treble]_A, | cB ._A2[K:bass] z2 | %36
 [B,F][K:treble][B,_A] [B,G][K:bass] .[E,E]3 | B,G, B, [E,B,]3 | %38
 [E,B,][E,_D] [E,D][K:treble] [_A,CE]3- | [A,CE] [=A,C^F]2 [B,G] [B,E][K:bass][F,CE] | %40
 [F,CE][B,,B,] [B,,_A,] [E,G,]3- |[M:1/4] [E,G,]2- | %42
[M:4/4] [E,G,] F,2 [B,,F,]- [B,,F,] [F,,F,]2 [B,,F,]- | %43
 [B,,F,] z D[C,F,]- [C,F,] [F,,F,]2 [B,,F,]- | [B,,F,] [D,B,]2 [E,B,E]- [E,B,E] [E,C]2 [D,B,]- | %45
 [D,B,] [B,,B,]2 [C,A,]- [C,A,]G,C[F,CF]- | [F,CF] F,2 [B,,F,]- [B,,F,] [F,,F,]2 [B,,F,]- | %47
 [B,,F,] [F,,F,]2 [C,F,]- [C,F,] [F,,F,]2 [B,,F,]- | %48
 [B,,F,][K:treble] [B,F]2 [A,CF] [A,C][B,DF] .[B,DG]2 | z2[K:bass] B,F,- F,4- | %50
 F, F2 F,,- F,, [F,A,]2 [F,A,E]- | [F,A,E] [F,A,E]2 B,,- B,, [F,B,]2 [F,B,D]- | %52
 [F,B,D] [F,B,D]2 F,,- F,, [F,A,]2 [F,A,E]- | [F,A,E] [F,A,E]2 B,,- B,, [F,B,]2 [F,B,D]- | %54
 [F,B,D] [B,,B,]2 [E,B,] [B,,B,][E,B,][D,D][K:treble][G,DG]- | [G,DG] [A,CF]2 [B,F]- [B,F]4- | %56
 [B,F][K:bass] [F,A,E]2 [B,F] [F,A,F][D,B,][F,A,F][K:treble][B,F]- | %57
 [B,F][K:bass] [G,C]2 [F,C]- [F,C]4- | [F,C] [E,C]2 [D,B,]- [D,B,] [D,B,]2 [D,B,]- | %59
 [D,B,]2 .[D,B,]2 .F2[K:treble] c[K:bass][B,,B,]- | %60
 [B,,B,] [D,B,]2 [E,B,E] [C,C][D,=B,][E,C][F,D]- |[M:15/8] [F,D] [F,C]2 [B,,B,]6 z6 |] %62
V:3
 x8 | z4 [DB]4 | E2 E2 z4 | x8 | F2 =E2 z4 | z4 z2 D2 | E2 E2 z4 | x8 | x8 | z2 z c AcGA | %10
 z2 D2 F2 F2 | z2 z c AcGA | z2 D2 F2 [DF]2 | x8 | x8 | x8 | x8 | x8 | x8 | x8 |[M:7/8] x7 | %21
[M:3/4] x6 | x6 | [Bd][_Ac] .[EG]2 B,B, | dc ._A2 G,B, | x6 | x6 | x6 | x6 | x6 | x6 | x6 | x6 | %33
 x6 | z2 z [_Ac]3 | ed .c2 B,B, | _Ac .B2 G,B, | x6 | x6 | x6 | x6 |[M:1/4] x2 | %42
[M:4/4] z4 z2 z [DB]- | [DB]2 z E- E .E3 | x8 | z2 z F- F .=E3 | x8 | z D2 E- E .E3 | x8 | x8 | %50
 z2 z e- e2 z2 | cG .A2 z D2 F- | F .F3 z2 cA | cG .A2 z D2 F- | F [DF]2 [EG] [DF][EG][^FA]B- | %55
 B c2 d- d4- | d c2 d c[FB]cd- | d [B=e]2 [Af]- [Af]4- | [Af] [Af]2 [Bf]- [Bf] [Fd]2 [FB]- | %59
 [FB]2 [FA][EG] A [B,G]2 [Fd]- | [Fd] F2 G [Ge][Gd][Gc][FB]- |[M:15/8] [FB] [EA]2 [DB]6 z6 |] %62
V:4
 x8 | z4 z2 F,2 | x8 | x8 | x8 | x8 | x8 | x8 | x8 | z2 E2 z4 | x8 | z2 E2 z4 | x8 | x8 | x8 | x8 | %16
 x8 | x8 | x8 | x8 |[M:7/8] x7 |[M:3/4] x6 | x6 | x6 | x6 | x6 | x6 | x6 | x6 | x6 | x6 | x6 | x6 | %33
 x6 | x6 | x6 | x6 | x6 | x6 | x6 | x6 |[M:1/4] x2 |[M:4/4] x8 | z .F,3 z4 | x8 | x8 | x8 | x8 | %48
 x8 | x8 | z4 z .E3 | x8 | z4 z .E3 | x8 | x8 | x8 | x8 | x8 | x8 | x8 | x8 |[M:15/8] x15 |] %62
V:5
 x8 | z4 z2 F,,2 | x8 | x8 | z2 C,2 z4 | x8 | x6[K:treble] x2 | z4 C4[K:bass] | x8 | x8 | x8 | x8 | %12
 x8 | x4[K:treble] x4 | x8 | x[K:bass] x2[K:treble] x3[K:bass] x2 | x8 | x8 | %18
 [E,B,]2[K:treble] E,2[K:bass] z4 | x8 |[M:7/8] x7 |[M:3/4][K:treble] z2 z[K:bass] E,3- | %22
 E,3 E,3- | E,3 B,,3- | B,,4[K:treble][K:bass] z2 | z2 z[K:bass] E,3- | E,3 E,3- | E,3 F,3- | %28
 F, z z2 z2 | x3[K:bass] x3 | z2 z E,3[K:treble] | x3[K:bass] x3 | z2 z E,3[K:treble] | %33
 z2 z[K:bass] E,3- | E,4 z2[K:treble] | z2 z[K:bass] B,,3- | B,,4[K:treble][K:bass] z2 | x6 | %38
 x3[K:treble] x3 | x5[K:bass] x | x6 |[M:1/4] x2 |[M:4/4] x8 | z .F,,3 z4 | x8 | z4 z .C,3 | x8 | %47
 x8 | z4[K:treble] z2 z C- | C2[K:bass] z2 z4 | x8 | x8 | x8 | x8 | x7[K:treble] x | x8 | %56
 x[K:bass] x6[K:treble] x | x[K:bass] x7 | x8 | z2 z [E,B,]- [E,B,] .E,3[K:treble][K:bass] | x8 | %61
[M:15/8] x15 |] %62
V:6
 x8 | x8 | x8 | x8 | x8 | x8 | x6[K:treble] x2 | z4 z2[K:bass] C,2 | x8 | x8 | x8 | x8 | x8 | %13
 x4[K:treble] x4 | x8 | x[K:bass] x2[K:treble] x3[K:bass] x2 | x8 | x8 | %18
 x[K:treble] x3[K:bass] x4 | x8 |[M:7/8] x7 |[M:3/4][K:treble] x3[K:bass] x3 | x6 | x6 | %24
 x[K:treble] x2[K:bass] x3 | x3[K:bass] x3 | x6 | x6 | x6 | x3[K:bass] x3 | x4[K:treble] x2 | %31
 x3[K:bass] x3 | x4[K:treble] x2 | x3[K:bass] x3 | x5[K:treble] x | x3[K:bass] x3 | %36
 x[K:treble] x2[K:bass] x3 | x6 | x3[K:treble] x3 | x5[K:bass] x | x6 |[M:1/4] x2 |[M:4/4] x8 | %43
 x8 | x8 | x8 | x8 | x8 | x[K:treble] x7 | z[K:bass] .C,3 z4 | x8 | x8 | x8 | x8 | x7[K:treble] x | %55
 x8 | x[K:bass] x6[K:treble] x | x[K:bass] x7 | x8 | x6[K:treble] x[K:bass] x | x8 |[M:15/8] x15 |] %62

